X:1
T:Cane Cutter's Lament
M:6/8
L:1/8
K:C
 E2 D| C2 C c2 A| G2 z2 GG| EEE E2 E| F2 E D2 D| E2 DC| CC| c2 A G2 G/2G/2|\
 EEE G2 C| E2 D C2||
